epam-assets/icon-sources/18/na.svg

<svg width="18" height="18" viewBox="0 0 18 18" fill="none" xmlns="http://www.w3.org/2000/svg">
<g id="18/na">
<g id="icon">
<path d="M7.99205 12L9.93782 5.25H10.5892L8.64342 12H7.99205Z" fill="#6C6F80"/>
<path d="M3 11.3303V6.07579H3.99376L5.69736 9.03248L6.25687 10.1493H6.29028C6.26801 9.88146 6.24017 9.58954 6.20677 9.27352C6.17893 8.95749 6.16501 8.65218 6.16501 8.35758V6.07579H7.09197V11.3303H6.09821L4.39461 8.37365L3.8351 7.25686H3.80169C3.82396 7.53539 3.84901 7.82731 3.87685 8.13262C3.91025 8.43793 3.92696 8.73788 3.92696 9.03248V11.3303H3Z" fill="#6C6F80"/>
<path fill-rule="evenodd" clip-rule="evenodd" d="M12.0855 6.07579L10.3068 11.3303H11.2922L11.7181 9.90824H13.5553L13.9812 11.3303H15L13.2212 6.07579H12.0855ZM11.9436 9.1771L12.1356 8.53434C12.2247 8.25581 12.3082 7.97193 12.3862 7.68269C12.4697 7.38809 12.5476 7.09349 12.62 6.7989H12.6534C12.7313 7.08814 12.8093 7.38006 12.8872 7.67465C12.9707 7.96925 13.057 8.25581 13.1461 8.53434L13.3382 9.1771H11.9436Z" fill="#6C6F80"/>
<path fill-rule="evenodd" clip-rule="evenodd" d="M0.75 4.5C0.75 3.67157 1.42157 3 2.25 3H15.75C16.5784 3 17.25 3.67157 17.25 4.5V13.5C17.25 14.3284 16.5784 15 15.75 15H2.25C1.42157 15 0.75 14.3284 0.75 13.5V4.5ZM2.25 4.125H15.75C15.9571 4.125 16.125 4.29289 16.125 4.5V13.5C16.125 13.7071 15.9571 13.875 15.75 13.875H2.25C2.04289 13.875 1.875 13.7071 1.875 13.5V4.5C1.875 4.29289 2.04289 4.125 2.25 4.125Z" fill="#6C6F80"/>
</g>
</g>
</svg>

<svg xmlns="http://www.w3.org/2000/svg" width="18" height="18" fill="none" viewBox="0 0 18 18">
  <path fill="#6C6F80" d="m7.992 12 1.946-6.75h.651L8.643 12h-.651ZM3 11.33V6.076h.994l1.703 2.956.56 1.117h.033c-.022-.268-.05-.56-.083-.875a10.444 10.444 0 0 1-.042-.916V6.076h.927v5.254h-.994L4.395 8.374l-.56-1.117h-.033c.022.278.047.57.075.876.033.305.05.605.05.9v2.297H3Z"/>
  <path fill="#6C6F80" fill-rule="evenodd" d="m12.085 6.076-1.778 5.254h.985l.426-1.422h1.837l.426 1.422H15l-1.779-5.254h-1.136Zm-.141 3.101.192-.643c.089-.278.172-.562.25-.851.084-.295.162-.59.234-.884h.033l.234.876c.084.294.17.58.26.86l.191.642h-1.394Z" clip-rule="evenodd"/>
  <path fill="#6C6F80" fill-rule="evenodd" d="M.75 4.5A1.5 1.5 0 0 1 2.25 3h13.5a1.5 1.5 0 0 1 1.5 1.5v9a1.5 1.5 0 0 1-1.5 1.5H2.25a1.5 1.5 0 0 1-1.5-1.5v-9Zm1.5-.375h13.5c.207 0 .375.168.375.375v9a.375.375 0 0 1-.375.375H2.25a.375.375 0 0 1-.375-.375v-9c0-.207.168-.375.375-.375Z" clip-rule="evenodd"/>
</svg>
